evolvere-2-blue-mono/apps/22/blender.svg

<?xml version="1.0" encoding="UTF-8" standalone="no"?>
<!-- Created with Inkscape (http://www.inkscape.org/) -->

<svg
   xmlns:dc="http://purl.org/dc/elements/1.1/"
   xmlns:cc="http://creativecommons.org/ns#"
   xmlns:rdf="http://www.w3.org/1999/02/22-rdf-syntax-ns#"
   xmlns:svg="http://www.w3.org/2000/svg"
   xmlns="http://www.w3.org/2000/svg"
   xmlns:sodipodi="http://sodipodi.sourceforge.net/DTD/sodipodi-0.dtd"
   xmlns:inkscape="http://www.inkscape.org/namespaces/inkscape"
   version="1.1"
   width="22"
   height="22"
   id="svg2"
   inkscape:version="0.48.3.1 r9886"
   sodipodi:docname="blender.svg">
  <sodipodi:namedview
     pagecolor="#ffffff"
     bordercolor="#666666"
     borderopacity="1"
     objecttolerance="10"
     gridtolerance="10"
     guidetolerance="10"
     inkscape:pageopacity="0"
     inkscape:pageshadow="2"
     inkscape:window-width="1920"
     inkscape:window-height="1023"
     id="namedview6"
     showgrid="true"
     inkscape:zoom="29.5"
     inkscape:cx="10.990833"
     inkscape:cy="11.596114"
     inkscape:window-x="-10"
     inkscape:window-y="35"
     inkscape:window-maximized="1"
     inkscape:current-layer="svg2"
     inkscape:snap-global="true"
     showguides="true"
     inkscape:guide-bbox="true"
     inkscape:snap-bbox="true"
     inkscape:bbox-paths="true"
     inkscape:bbox-nodes="true"
     inkscape:snap-bbox-edge-midpoints="true"
     inkscape:snap-bbox-midpoints="true"
     inkscape:object-paths="true"
     inkscape:snap-intersection-paths="true"
     inkscape:object-nodes="true"
     inkscape:snap-smooth-nodes="true"
     inkscape:snap-midpoints="true"
     inkscape:snap-object-midpoints="true"
     inkscape:snap-center="true">
    <inkscape:grid
       type="xygrid"
       id="grid2982"
       empspacing="5"
       visible="true"
       enabled="true"
       snapvisiblegridlinesonly="true" />
  </sodipodi:namedview>
  <defs
     id="defs4" />
  <metadata
     id="metadata7">
    <rdf:RDF>
      <cc:Work
         rdf:about="">
        <dc:format>image/svg+xml</dc:format>
        <dc:type
           rdf:resource="http://purl.org/dc/dcmitype/StillImage" />
        <dc:title />
      </cc:Work>
    </rdf:RDF>
  </metadata>
  <path
     id="path3049"
     d="m 11.59375,2.09375 c -0.255619,0 -0.522882,0.1166314 -0.71875,0.3125 -0.391738,0.3917371 -0.391738,1.0145129 0,1.40625 L 13.0625,6 C 13.04157,5.9998159 13.02097,6 13,6 L 5,6 C 4.446,6 4,6.446 4,7 4,7.554 4.446,8 5,8 L 8.125,8 C 8.10434,8.02016 8.08291,8.04209 8.0625,8.0625 7.9041561,8.220844 7.7364059,8.389641 7.59375,8.5625 l -5.1875,5.15625 c -0.3917372,0.391737 -0.3917372,1.014513 0,1.40625 0.3917371,0.391738 1.0145129,0.391738 1.40625,0 L 6,12.9375 c -1.841e-4,0.02093 0,0.04153 0,0.0625 0,3.865993 3.134007,7 7,7 3.865993,0 7,-3.134007 7,-7 0,-2.174621 -1.006769,-4.122347 -2.5625,-5.40625 L 12.28125,2.40625 C 12.085381,2.2103814 11.849369,2.09375 11.59375,2.09375 z M 13,8 c 2.761423,0 5,2.238577 5,5 0,2.761423 -2.238577,5 -5,5 -2.761423,0 -5,-2.238577 -5,-5 0,-2.761423 2.238577,-5 5,-5 z m 0,2 c -1.656854,0 -3,1.343146 -3,3 0,1.656854 1.343146,3 3,3 1.656854,0 3,-1.343146 3,-3 0,-1.656854 -1.343146,-3 -3,-3 z"
     style="color:#000000;fill:#27303a;fill-opacity:0.753280819999999968;fill-rule:nonzero;stroke:none;stroke-width:0.78571427;marker:none;visibility:visible;display:inline;overflow:visible;enable-background:accumulate"
     inkscape:connector-curvature="0" />
  <path
     style="font-size:medium;font-style:normal;font-variant:normal;font-weight:normal;font-stretch:normal;text-indent:0;text-align:start;text-decoration:none;line-height:normal;letter-spacing:normal;word-spacing:normal;text-transform:none;direction:ltr;block-progression:tb;writing-mode:lr-tb;text-anchor:start;baseline-shift:baseline;color:#000000;fill:#f1f3f5;fill-opacity:0.90288714000000003;fill-rule:nonzero;stroke:none;stroke-width:2;marker:none;visibility:visible;display:inline;overflow:visible;enable-background:accumulate;font-family:Sans;-inkscape-font-specification:Sans"
     d="m 11.59375,0.90625 c -0.620635,0 -1.149113,0.2428613 -1.5625,0.65625 -0.841396,0.8413943 -0.841396,2.2523557 0,3.09375 L 10.1875,4.8125 5,4.8125 C 3.8019567,4.8125 2.8125,5.8019567 2.8125,7 2.8125,8.198043 3.8019567,9.1875 5,9.1875 l 0.28125,0 -3.71875,3.6875 c -0.8413953,0.841395 -0.8413953,2.252355 0,3.09375 0.8413943,0.841396 2.2523557,0.841396 3.09375,0 l 0.625,-0.625 C 6.3088844,18.69999 9.315968,21.1875 13,21.1875 c 4.514521,0 8.1875,-3.672979 8.1875,-8.1875 0,-2.497649 -1.144406,-4.748119 -2.90625,-6.25 L 18.1875,6.65625 13.125,1.5625 C 12.756741,1.1942415 12.214385,0.90625 11.59375,0.90625 z m 0,1.1875 c 0.255619,0 0.491631,0.1166314 0.6875,0.3125 l 5.15625,5.1875 C 18.993231,8.877653 20,10.825379 20,13 20,16.865993 16.865993,20 13,20 9.134007,20 6,16.865993 6,13 6,12.97903 5.9998159,12.95843 6,12.9375 L 3.8125,15.125 c -0.3917371,0.391738 -1.0145129,0.391738 -1.40625,0 -0.3917372,-0.391737 -0.3917372,-1.014513 0,-1.40625 L 7.59375,8.5625 C 7.7364059,8.389641 7.9041561,8.220844 8.0625,8.0625 8.08291,8.04209 8.10434,8.020158 8.125,8 L 5,8 C 4.446,8 4,7.554 4,7 4,6.446 4.446,6 5,6 l 8,0 c 0.02097,0 0.04157,-1.841e-4 0.0625,0 L 10.875,3.8125 c -0.391738,-0.3917371 -0.391738,-1.0145129 0,-1.40625 0.195868,-0.1958686 0.463131,-0.3125 0.71875,-0.3125 z M 13,8.847458 c -2.293385,0 -4.1525424,1.859157 -4.1525424,4.152542 0,2.293385 1.8591574,4.152542 4.1525424,4.152542 2.293385,0 4.152542,-1.859157 4.152542,-4.152542 0,-2.293385 -1.859157,-4.152542 -4.152542,-4.152542 z M 13,10 c 1.656854,0 3,1.343146 3,3 0,1.656854 -1.343146,3 -3,3 -1.656854,0 -3,-1.343146 -3,-3 0,-1.656854 1.343146,-3 3,-3 z"
     id="path2986"
     inkscape:connector-curvature="0"
     sodipodi:nodetypes="ssscsssccsscsscccssccssscssccscsssscsssssssssssss" />
</svg>

<?xml version="1.0" encoding="UTF-8"?>
<!-- Created with Inkscape (http://www.inkscape.org/) -->
<svg width="22" height="22" version="1.1" xmlns="http://www.w3.org/2000/svg" xmlns:cc="http://creativecommons.org/ns#" xmlns:dc="http://purl.org/dc/elements/1.1/" xmlns:rdf="http://www.w3.org/1999/02/22-rdf-syntax-ns#">
	<defs>
		<style id="current-color-scheme" type="text/css">.ColorScheme-Text {color:#090d11;}.ColorScheme-Background{color:#ffffff;}</style>
		<style type="text/css">.ColorScheme-Text {
			color:#090d11;
			}
			.ColorScheme-Background{
			color:#ffffff;
			}</style>
	</defs>
	<metadata>
		<rdf:RDF>
			<cc:Work rdf:about="">
				<dc:format>image/svg+xml</dc:format>
				<dc:type rdf:resource="http://purl.org/dc/dcmitype/StillImage"/>
			</cc:Work>
		</rdf:RDF>
	</metadata>
	<path class="ColorScheme-Text" d="m11.594 2.0938c-0.25562 0-0.52288 0.11663-0.71875 0.3125-0.39174 0.39174-0.39174 1.0145 0 1.4062l2.1875 2.1875c-0.02093-1.841e-4 -0.04153 0-0.0625 0h-8c-0.554 0-1 0.446-1 1s0.446 1 1 1h3.125c-0.02066 0.02016-0.04209 0.04209-0.0625 0.0625-0.15834 0.15834-0.32609 0.32714-0.46875 0.5l-5.1875 5.1562c-0.39174 0.39174-0.39174 1.0145 0 1.4062 0.39174 0.39174 1.0145 0.39174 1.4062 0l2.1875-2.1875c-1.841e-4 0.02093 0 0.04153 0 0.0625 0 3.866 3.134 7 7 7s7-3.134 7-7c0-2.1746-1.0068-4.1223-2.5625-5.4062l-5.1562-5.1875c-0.19587-0.19587-0.43188-0.3125-0.6875-0.3125zm1.4062 5.9062c2.7614 0 5 2.2386 5 5s-2.2386 5-5 5-5-2.2386-5-5 2.2386-5 5-5zm0 2c-1.6569 0-3 1.3431-3 3s1.3431 3 3 3 3-1.3431 3-3-1.3431-3-3-3z" style="fill-opacity:.75;fill:currentColor"/>
	<path class="ColorScheme-Background" d="m11.594 0.90625c-0.62064 0-1.1491 0.24286-1.5625 0.65625-0.8414 0.84139-0.8414 2.2524 0 3.0938l0.15625 0.15625h-5.1875c-1.198 0-2.1875 0.98946-2.1875 2.1875 0 1.198 0.98946 2.1875 2.1875 2.1875h0.28125l-3.7188 3.6875c-0.8414 0.8414-0.8414 2.2524 0 3.0938 0.84139 0.8414 2.2524 0.8414 3.0938 0l0.625-0.625c1.0276 3.3562 4.0347 5.8438 7.7188 5.8438 4.5145 0 8.1875-3.673 8.1875-8.1875 0-2.4976-1.1444-4.7481-2.9062-6.25l-0.09375-0.09375-5.0625-5.0938c-0.36826-0.36826-0.91062-0.65625-1.5312-0.65625zm0 1.1875c0.25562 0 0.49163 0.11663 0.6875 0.3125l5.1562 5.1875c1.5557 1.2839 2.5625 3.2316 2.5625 5.4062 0 3.866-3.134 7-7 7s-7-3.134-7-7c0-0.02097-1.841e-4 -0.04157 0-0.0625l-2.1875 2.1875c-0.39174 0.39174-1.0145 0.39174-1.4062 0-0.39174-0.39174-0.39174-1.0145 0-1.4062l5.1875-5.1562c0.14266-0.17286 0.31041-0.34166 0.46875-0.5 0.02041-0.02041 0.04184-0.042342 0.0625-0.0625h-3.125c-0.554 0-1-0.446-1-1s0.446-1 1-1h8c0.02097 0 0.04157-1.841e-4 0.0625 0l-2.1875-2.1875c-0.39174-0.39174-0.39174-1.0145 0-1.4062 0.19587-0.19587 0.46313-0.3125 0.71875-0.3125zm1.4062 6.7539c-2.2934 0-4.1523 1.859-4.1523 4.1523s1.859 4.1523 4.1523 4.1523 4.1523-1.859 4.1523-4.1523-1.859-4.1523-4.1523-4.1523zm0 1.1523c1.6569 0 3 1.3431 3 3s-1.3431 3-3 3-3-1.3431-3-3 1.3431-3 3-3z" style="fill-opacity:.5;fill:currentColor"/>
</svg>
